X:44
T:Light and Airy
M:6/8
L:1/8
B:Thompson's Compleat Collection of 200 Favourite Country Dances, vol. 3 (London, 1773)
Z:Transcribed and edited by Flynn Titford-Mock, 2007
Z:abc's:AK/Fiddler's Companion
K:D
A | dff egg | faa gbb | agf agf | eee e2A | dff egg | faa gbb | agf gfe | ddd d2 :|
|: a | aff gee | fdd eAA | aff fed | eee e2A | AFd dAf | fdb a2g | fed Adc | ddd d2 :|

